svgs/anime_scrap.svg

<svg width="192" height="192" viewBox="0 0 192 192" fill="none" xmlns="http://www.w3.org/2000/svg">
<path d="M80.2913 133L86.6602 117.8L101.786 110.6L86.6602 104.2L79.4952 89L73.1262 104.2L58 111.4L73.1262 117.8L80.2913 133Z" stroke="black" stroke-width="10" stroke-linecap="round" stroke-linejoin="round"/>
<path d="M127.591 103.8L131.759 93.8509L141.66 89.1382L131.759 84.9491L127.07 75L122.901 84.9491L113 89.6618L122.901 93.8509L127.591 103.8Z" stroke="black" stroke-width="6" stroke-linecap="round" stroke-linejoin="round"/>
<path d="M76 66.2917H47.5L32.5 37H28C24.6863 37 22 39.6863 22 43V146.167C22 150.585 25.5817 154.167 30 154.167H162C166.418 154.167 170 150.585 170 146.167V66.2917M76 66.2917L62.8542 37H77.5L90.6458 66.2917H119L106.854 37H121.5L133.646 66.2917M76 66.2917H133.646M133.646 66.2917H161M161 66.2917L150 36H170V66.2917M161 66.2917H170" stroke="black" stroke-width="12" stroke-linecap="round" stroke-linejoin="round"/>
</svg>

<svg width="192" height="192" viewBox="0 0 192 192" fill="none" xmlns="http://www.w3.org/2000/svg"><path d="m80.291 133 6.37-15.2 15.125-7.2-15.126-6.4L79.495 89l-6.369 15.2L58 111.4l15.126 6.4 7.165 15.2Z" stroke="#000" stroke-width="10" stroke-linecap="round" stroke-linejoin="round"/><path d="m127.591 103.8 4.168-9.95 9.901-4.712-9.901-4.189L127.07 75l-4.169 9.95L113 89.661l9.901 4.189 4.69 9.949Z" stroke="#000" stroke-width="6" stroke-linecap="round" stroke-linejoin="round"/><path d="M76 66.292H47.5L32.5 37H28a6 6 0 0 0-6 6v103.167a8 8 0 0 0 8 8h132a8 8 0 0 0 8-8V66.292m-94 0L62.854 37H77.5l13.146 29.292H119L106.854 37H121.5l12.146 29.292m-57.646 0h57.646m0 0H161m0 0L150 36h20v30.292m-9 0h9" stroke="#000" stroke-width="12" stroke-linecap="round" stroke-linejoin="round"/></svg>
